dist/icons/svgs/money-bill-outline.svg

<svg xmlns="http://www.w3.org/2000/svg" width="24" height="24" fill="currentcolor" class="icon-money-bill-outline" viewBox="0 0 24 24">
  <path d="M5.625 6.375C5.625 7.78125 4.49219 8.875 3.125 8.875V15.125C4.49219 15.125 5.625 16.2578 5.625 17.625H19.375C19.375 16.2578 20.4688 15.125 21.875 15.125V8.875C20.4688 8.875 19.375 7.78125 19.375 6.375H5.625ZM1.25 7C1.25 5.63281 2.34375 4.5 3.75 4.5H21.25C22.6172 4.5 23.75 5.63281 23.75 7V17C23.75 18.4062 22.6172 19.5 21.25 19.5H3.75C2.34375 19.5 1.25 18.4062 1.25 17V7ZM12.5 8.25C13.8281 8.25 15.0391 8.99219 15.7422 10.125C16.4062 11.2969 16.4062 12.7422 15.7422 13.875C15.0391 15.0469 13.8281 15.75 12.5 15.75C11.1328 15.75 9.92188 15.0469 9.21875 13.875C8.55469 12.7422 8.55469 11.2969 9.21875 10.125C9.92188 8.99219 11.1328 8.25 12.5 8.25Z"/>
</svg>

<svg xmlns="http://www.w3.org/2000/svg" width="24" height="24" fill="currentColor" class="icon-money-bill-outline" viewBox="0 0 24 24">
  <path d="M5.625 6.375c0 1.406-1.133 2.5-2.5 2.5v6.25c1.367 0 2.5 1.133 2.5 2.5h13.75c0-1.367 1.094-2.5 2.5-2.5v-6.25a2.47 2.47 0 0 1-2.5-2.5zM1.25 7c0-1.367 1.094-2.5 2.5-2.5h17.5c1.367 0 2.5 1.133 2.5 2.5v10c0 1.406-1.133 2.5-2.5 2.5H3.75a2.47 2.47 0 0 1-2.5-2.5zM12.5 8.25c1.328 0 2.54.742 3.242 1.875.664 1.172.664 2.617 0 3.75-.703 1.172-1.914 1.875-3.242 1.875-1.367 0-2.578-.703-3.281-1.875-.664-1.133-.664-2.578 0-3.75.703-1.133 1.914-1.875 3.281-1.875"/>
</svg>
